public/images/hp.svg

<svg width="69" height="68" viewBox="0 0 69 68" fill="none" xmlns="http://www.w3.org/2000/svg">
<g style="mix-blend-mode:saturation">
<path d="M34.7758 0.111974C35.7855 0.106163 36.7912 -0.122428 37.7931 0.090665C42.229 0.483919 46.6026 1.70242 50.5483 3.77911C55.6527 6.39241 60.0439 10.3656 63.2296 15.1273C66.4795 19.9703 68.4036 25.6735 68.8377 31.4851C68.7662 33.0232 68.7214 34.5711 68.8706 36.1053C68.553 40.5241 67.4463 44.9061 65.4737 48.8851C63.224 53.5092 59.8924 57.6006 55.8366 60.7622C50.7826 64.7238 44.5814 67.2014 38.1825 67.7886C37.2079 67.8584 36.2347 68.0385 35.2545 67.963C34.6051 67.9202 33.9404 68.1276 33.3166 67.862C35.7062 61.142 38.0935 54.4197 40.5042 47.7054C43.1279 47.6569 45.754 47.7228 48.3777 47.6744C50.0522 47.6162 51.7071 46.5971 52.2575 44.97C54.4764 38.7245 56.7515 32.4963 58.9006 26.2236C59.2533 25.2763 59.449 24.2206 59.168 23.2287C58.7882 21.9715 57.6373 21.0823 56.4007 20.7491C55.3273 20.4159 54.1933 20.5379 53.0889 20.5185C49.7208 20.5089 46.3528 20.536 42.9867 20.5031C42.9324 20.6154 42.8218 20.8382 42.7677 20.9486C37.3143 36.2603 31.871 51.5761 26.3964 66.8799C20.7727 65.4211 15.5326 62.4998 11.3546 58.4627C6.32188 53.6485 2.82787 47.2462 1.5353 40.4021C1.13028 38.3467 0.983003 36.2545 0.870605 34.1681C0.961686 29.823 1.67483 25.4584 3.31234 21.4174C7.30632 11.2103 16.5481 3.17277 27.2917 0.875235C21.792 16.1191 16.4202 31.4095 10.9224 46.6554C11.2732 46.7619 11.6414 46.7213 12.0018 46.7249C14.0056 46.7153 16.0113 46.729 18.0151 46.7211C18.2883 46.7191 18.2592 46.3394 18.3736 46.1651C20.7882 39.35 23.2319 32.5446 25.6542 25.7333C25.7996 25.311 25.9352 24.8848 26.129 24.4838C27.3848 24.5051 28.6405 24.478 29.8963 24.4974C27.2627 31.8801 24.6523 39.2744 21.98 46.6434C22.259 46.7557 22.5633 46.7209 22.8559 46.7269C24.9605 46.7073 27.065 46.7402 29.1695 46.7114C31.5473 40.0028 33.9542 33.3059 36.338 26.6012C36.8474 25.2297 36.892 23.6082 36.0822 22.3432C35.3748 21.2235 34.0319 20.6888 32.7509 20.6365C30.9991 20.5842 29.2453 20.6404 27.4915 20.6094C29.9021 13.7712 32.3845 6.95808 34.7758 0.111974Z" fill="#343434"/>
<path d="M48.7385 24.5712C48.9476 24.3349 49.3199 24.4782 49.5987 24.4375C50.5715 24.455 51.5442 24.4298 52.5174 24.4511C50.2518 30.9156 47.8798 37.3432 45.6513 43.8213C44.3916 43.9104 43.1223 43.8561 41.8608 43.8484C44.161 37.4265 46.438 30.995 48.7385 24.5712Z" fill="#343434"/>
</g>
</svg>

<svg width="69" height="68" fill="none" xmlns="http://www.w3.org/2000/svg"><g style="mix-blend-mode:saturation" fill="#fff"><path d="M34.776.112c1.01-.006 2.015-.234 3.017-.021 4.436.393 8.81 1.611 12.755 3.688 5.105 2.613 9.496 6.587 12.682 11.348 3.25 4.843 5.174 10.546 5.608 16.358-.072 1.538-.117 3.086.033 4.62-.318 4.42-1.425 8.801-3.397 12.78a33.99 33.99 0 0 1-9.637 11.877c-5.054 3.962-11.256 6.44-17.655 7.027-.974.07-1.947.25-2.928.174-.649-.043-1.314.165-1.937-.101 2.39-6.72 4.776-13.442 7.187-20.157 2.624-.048 5.25.018 7.874-.03 1.674-.059 3.33-1.078 3.88-2.705 2.218-6.245 4.493-12.474 6.643-18.746.352-.948.548-2.003.267-2.995-.38-1.258-1.53-2.147-2.767-2.48-1.074-.333-2.208-.211-3.312-.23-3.368-.01-6.736.017-10.102-.016l-.22.446c-5.453 15.311-10.896 30.627-16.37 45.93-5.624-1.458-10.864-4.38-15.042-8.416-5.033-4.815-8.527-11.217-9.82-18.06-.405-2.056-.552-4.148-.664-6.235.09-4.345.804-8.71 2.441-12.75C7.306 11.21 16.548 3.172 27.292.874c-5.5 15.244-10.872 30.535-16.37 45.78.351.107.72.066 1.08.07 2.004-.01 4.01.004 6.013-.004.273-.002.244-.382.359-.556 2.414-6.815 4.858-13.62 7.28-20.432.146-.422.281-.848.475-1.25 1.256.022 2.511-.005 3.767.014-2.633 7.383-5.244 14.777-7.916 22.146.279.113.583.078.876.084 2.104-.02 4.209.013 6.313-.016 2.378-6.708 4.785-13.405 7.169-20.11.51-1.371.554-2.993-.256-4.258-.707-1.12-2.05-1.654-3.331-1.706-1.752-.053-3.506.003-5.26-.028 2.411-6.838 4.894-13.65 7.285-20.497Z"/><path d="M48.739 24.571c.209-.236.58-.093.86-.134.973.018 1.945-.007 2.918.014-2.265 6.465-4.637 12.892-6.866 19.37-1.26.09-2.529.035-3.79.027 2.3-6.422 4.577-12.853 6.878-19.277Z"/></g></svg>
